public/web.svg

<svg width="24" height="24" viewBox="0 0 24 24" fill="none" xmlns="http://www.w3.org/2000/svg">
<path d="M12 0C5.37225 0 0 5.37225 0 12C0 18.6278 5.37225 24 12 24C18.6278 24 24 18.6278 24 12C23.9865 5.37825 18.6217 0.0135 12.0015 0H12ZM20.568 7.416H16.968C16.6515 5.74425 16.2113 4.27125 15.6398 2.86725L15.696 3.024C17.802 3.90375 19.4895 5.436 20.5425 7.365L20.568 7.416ZM21.72 12C21.717 12.8108 21.6127 13.596 21.4177 14.3453L21.432 14.28H17.304C17.3745 13.5968 17.415 12.8033 17.415 12C17.415 11.1967 17.3745 10.4033 17.2957 9.62175L17.304 9.72H21.432C21.6128 10.404 21.717 11.1892 21.72 11.9985V12ZM2.28 12C2.283 11.1892 2.38725 10.404 2.58225 9.65475L2.568 9.72H6.72C6.6495 10.4032 6.609 11.1967 6.609 12C6.609 12.8033 6.6495 13.5967 6.72825 14.3783L6.72 14.28H2.568C2.38725 13.596 2.283 12.8108 2.28 12.0015V12ZM8.976 9.72H15.024C15.0997 10.404 15.1432 11.1967 15.1432 12C15.1432 12.8033 15.0997 13.596 15.0157 14.3768L15.024 14.28H8.976C8.90025 13.596 8.85675 12.8033 8.85675 12C8.85675 11.1967 8.90025 10.404 8.98425 9.62325L8.976 9.72ZM12.912 2.28C13.6357 3.75375 14.2395 5.469 14.6355 7.26225L14.664 7.416H9.336C9.7605 5.469 10.3643 3.753 11.1488 2.142L11.088 2.28C11.376 2.28 11.688 2.28 12 2.28C12.312 2.28 12.576 2.28 12.912 2.28ZM8.352 2.976C7.81875 4.2375 7.362 5.72475 7.05675 7.26675L7.032 7.416H3.432C4.5105 5.436 6.198 3.90375 8.24025 3.048L8.304 3.024L8.352 2.976ZM3.432 16.56H7.032C7.34625 18.24 7.7865 19.7213 8.36025 21.1335L8.304 20.976C6.195 20.0903 4.50675 18.549 3.4575 16.6117L3.432 16.56ZM11.088 21.72C10.362 20.2395 9.75825 18.5152 9.3645 16.7137L9.336 16.56H14.664C14.2417 18.5152 13.638 20.2395 12.8512 21.858L12.912 21.72C12.624 21.72 12.312 21.72 12 21.72C11.688 21.72 11.424 21.72 11.088 21.72ZM15.648 21.024C16.1655 19.7692 16.6057 18.288 16.8967 16.7542L16.92 16.608H20.568C19.4858 18.5782 17.799 20.1023 15.7605 20.952L15.696 20.976L15.648 21.024Z" fill="black"/>
</svg>

<?xml version="1.0" encoding="utf-8"?>
<!-- Generator: Adobe Illustrator 24.2.1, SVG Export Plug-In . SVG Version: 6.00 Build 0)  -->
<!DOCTYPE svg PUBLIC "-//W3C//DTD SVG 1.1//EN" "http://www.w3.org/Graphics/SVG/1.1/DTD/svg11.dtd" [
	<!ENTITY ns_extend "http://ns.adobe.com/Extensibility/1.0/">
	<!ENTITY ns_ai "http://ns.adobe.com/AdobeIllustrator/10.0/">
	<!ENTITY ns_graphs "http://ns.adobe.com/Graphs/1.0/">
	<!ENTITY ns_vars "http://ns.adobe.com/Variables/1.0/">
	<!ENTITY ns_imrep "http://ns.adobe.com/ImageReplacement/1.0/">
	<!ENTITY ns_sfw "http://ns.adobe.com/SaveForWeb/1.0/">
	<!ENTITY ns_custom "http://ns.adobe.com/GenericCustomNamespace/1.0/">
	<!ENTITY ns_adobe_xpath "http://ns.adobe.com/XPath/1.0/">
]>
<svg version="1.1" id="Layer_1" xmlns:x="&ns_extend;" xmlns:i="&ns_ai;" xmlns:graph="&ns_graphs;"
	 xmlns="http://www.w3.org/2000/svg" xmlns:xlink="http://www.w3.org/1999/xlink" x="0px" y="0px" viewBox="0 0 24 24"
	 style="enable-background:new 0 0 24 24;" xml:space="preserve">
<style type="text/css">
	.st0{fill:#F9F9F9;}
</style>
<metadata>
	<sfw  xmlns="&ns_sfw;">
		<slices></slices>
		<sliceSourceBounds  bottomLeftOrigin="true" height="24" width="24" x="0" y="0"></sliceSourceBounds>
	</sfw>
</metadata>
<path class="st0" d="M12,0C5.4,0,0,5.4,0,12c0,6.6,5.4,12,12,12c6.6,0,12-5.4,12-12C24,5.4,18.6,0,12,0L12,0z M20.6,7.4H17
	c-0.3-1.7-0.8-3.1-1.3-4.5L15.7,3C17.8,3.9,19.5,5.4,20.6,7.4L20.6,7.4z M21.7,12c0,0.8-0.1,1.6-0.3,2.3l0-0.1h-4.1
	c0.1-0.7,0.1-1.5,0.1-2.3s0-1.6-0.1-2.4l0,0.1h4.1C21.6,10.4,21.7,11.2,21.7,12L21.7,12z M2.3,12c0-0.8,0.1-1.6,0.3-2.3l0,0.1h4.2
	c-0.1,0.7-0.1,1.5-0.1,2.3s0,1.6,0.1,2.4l0-0.1H2.6C2.4,13.6,2.3,12.8,2.3,12L2.3,12z M9,9.7h6c0.1,0.7,0.1,1.5,0.1,2.3
	s0,1.6-0.1,2.4l0-0.1H9c-0.1-0.7-0.1-1.5-0.1-2.3S8.9,10.4,9,9.7L9,9.7z M12.9,2.3c0.7,1.5,1.3,3.2,1.7,5l0,0.2H9.3
	c0.4-1.9,1-3.7,1.8-5.3l-0.1,0.1c0.3,0,0.6,0,0.9,0S12.6,2.3,12.9,2.3z M8.4,3c-0.5,1.3-1,2.7-1.3,4.3l0,0.1H3.4
	c1.1-2,2.8-3.5,4.8-4.4L8.4,3L8.4,3z M3.4,16.6H7c0.3,1.7,0.8,3.2,1.3,4.6L8.3,21C6.2,20.1,4.5,18.5,3.4,16.6L3.4,16.6z M11.1,21.7
	c-0.7-1.5-1.3-3.2-1.7-5l0-0.2h5.3c-0.4,2-1,3.7-1.8,5.3l0.1-0.1c-0.3,0-0.6,0-0.9,0S11.4,21.7,11.1,21.7z M15.6,21
	c0.5-1.3,1-2.7,1.2-4.3l0-0.1h3.6c-1.1,2-2.8,3.5-4.8,4.3L15.6,21L15.6,21z"/>
</svg>
